X:753
T:Parlalaw.
C:John Malchair's Third Collection of Tunes
F:https://www.vwml.org/record/Malchair/3619/p75
F:www.vwml.org/topics/historic-dance-and-tune-books/Malchair
Z:Eric Conrad Mar 2020
N:NB1) MS has quarter note (i.e. G2)
N:NB2) added repeats
W:a German tune from Aird's Coll.
M:C
L:1/8
K:G
P:A
|: "_NB1"G | GBBd d>cBd | cB AG/F/ G3d | GBBd cB Ag | f/a/f/d/ e/g/e/^c/ d2-d :|
P:B
|: d | gf/g/ ef/g/ fe/f/ d2 | fe/f/ cd/e/ dc/d/ B2 | cBAG FE/D/ Gc | B/d/B/G/ A/c/A/F/ G2 G :|


% %%%%%%%%%%%%%%%%%%%%%%%%%%%%%%%%%%%%%%%%%%%%%%%%%%%%%%%%%%%%%%%%%%%%%%%%%%%%%%%%%%%%
% PAGES 76-100
% %%%%%%%%%%%%%%%%%%%%%%%%%%%%%%%%%%%%%%%%%%%%%%%%%%%%%%%%%%%%%%%%%%%%%%%%%%%%%%%%%%%%

%
%  The next few pages are apparently various dances from Bj\/orgvin (Bergen) Norway.
%


